X:521
T:All Things Bright and Beautiful
M:4/4
L:1/8
K:G
d2 B2 c2 B2 | AGFE D2 B2 | c2 E2 F2 EF | G8 | 
d2 B2 c2 B2 | AGFE D2 B2 | c2 E2 F2 EF | G6 || 
D2 | B,2 D2 D2 CB, | C2 E4 E2 | FG A2 FG A2 | D6 GA | 
B2 A2 G2 AB | c3 B A2 Bc | d2 E2 F2 EF | G6 | 
